assets/post/images/return2libc1.svg

<svg xmlns="http://www.w3.org/2000/svg" width="1720" height="1522" overflow="hidden"><defs><clipPath id="a"><path d="M2369 621h1720v1522H2369z"/></clipPath></defs><g clip-path="url(#a)" transform="translate(-2369 -621)"><path fill="#fdefe8" fill-rule="evenodd" d="M2900.91 1323.29h906.35v110h-906.35Zm0 110h906.35v389.76h-906.35Z"/><path fill="none" stroke="#d74514" stroke-linejoin="round" stroke-miterlimit="10" stroke-width="4.583" d="M2898.61 1103.29h910.94"/><path fill="none" stroke="#000" stroke-linejoin="round" stroke-miterlimit="10" stroke-width="4.583" d="M2898.61 1213.29h910.94"/><path fill="none" stroke="#d74514" stroke-linejoin="round" stroke-miterlimit="10" stroke-width="4.583" d="M2898.61 1323.29h910.94"/><path fill="none" stroke="#000" stroke-linejoin="round" stroke-miterlimit="10" stroke-width="4.583" d="M2898.61 1433.29h910.94m-908.64-722.058v392.058"/><path fill="none" stroke="#d74514" stroke-linejoin="round" stroke-miterlimit="10" stroke-width="4.583" d="M2900.91 1103.29v220"/><path fill="none" stroke="#000" stroke-linejoin="round" stroke-miterlimit="10" stroke-width="4.583" d="M2900.91 1323.29v502.05m906.35-1114.108v392.058"/><path fill="none" stroke="#d74514" stroke-linejoin="round" stroke-miterlimit="10" stroke-width="4.583" d="M3807.26 1103.29v220"/><path fill="none" stroke="#000" stroke-linejoin="round" stroke-miterlimit="10" stroke-width="4.583" d="M3807.26 1323.29v502.05M2898.61 713.524h910.94M2898.61 1823.05h910.94"/><text font-family="Microsoft YaHei,Microsoft YaHei_MSFontService,sans-serif" font-size="64" font-weight="400" transform="translate(3328.02 932)">…<tspan x="-191.641" y="246" fill="#d74514" font-family="Courier New,Courier New_MSFontService,sans-serif" font-weight="700">/bin/</tspan><tspan x=".286" y="246" fill="#d74514" font-family="Courier New,Courier New_MSFontService,sans-serif" font-weight="700">sh</tspan><tspan x="115.443" y="246" fill="#d74514" font-weight="700">地址</tspan><tspan x="-121" y="360" fill="#d74514">padding2</tspan><tspan x="-210.833" y="466" fill="#d74514" font-family="Courier New,Courier New_MSFontService,sans-serif" font-weight="700">system() </tspan><tspan x="134.636" y="466" fill="#d74514" font-weight="700">地址</tspan><tspan x="-121" y="720" fill="#d74514">padding1</tspan></text><path fill="#d74514" fill-rule="evenodd" d="M3230 1925h62v-102h124v102h62l-124 102Z"/><text fill="#5d1709" font-family="Microsoft YaHei,Microsoft YaHei_MSFontService,sans-serif" font-size="55" font-weight="700" transform="translate(3271.58 2097)">低地址<tspan x="0" y="-1406">高地址</tspan><tspan x="-733.791" y="-1162" font-weight="400">调用函数状态</tspan><tspan x="-733.791" y="-448" font-weight="400">被调函数状态</tspan><tspan x="-844.135" y="-702" font-weight="400">被调函数返回地址</tspan><tspan x="536.832" y="-641" font-weight="400">←</tspan><tspan x="591.832" y="-641" font-weight="400">ebp</tspan><tspan x="540.777" y="-252" font-weight="400">←</tspan><tspan x="595.777" y="-252" font-weight="400">esp</tspan><tspan x="568.678" y="-893" font-weight="400">栈</tspan><tspan x="623.678" y="-893" font-weight="400">溢出</tspan><tspan x="568.678" y="-827" font-weight="400">payload</tspan></text></g></svg>

<svg width="1720" height="1522" xmlns="http://www.w3.org/2000/svg" xmlns:xlink="http://www.w3.org/1999/xlink" overflow="hidden"><defs><clipPath id="clip0"><rect x="2369" y="621" width="1720" height="1522"/></clipPath></defs><g clip-path="url(#clip0)" transform="translate(-2369 -621)"><path d="M2900.91 1323.29 3807.26 1323.29 3807.26 1433.29 2900.91 1433.29Z" fill="#FDEFE8" fill-rule="evenodd"/><path d="M2900.91 1433.29 3807.26 1433.29 3807.26 1823.05 2900.91 1823.05Z" fill="#FDEFE8" fill-rule="evenodd"/><path d="M2898.61 1103.29 3809.55 1103.29" stroke="#D74514" stroke-width="4.58333" stroke-linejoin="round" stroke-miterlimit="10" fill="none" fill-rule="evenodd"/><path d="M2898.61 1213.29 3809.55 1213.29" stroke="#000000" stroke-width="4.58333" stroke-linejoin="round" stroke-miterlimit="10" fill="none" fill-rule="evenodd"/><path d="M2898.61 1323.29 3809.55 1323.29" stroke="#D74514" stroke-width="4.58333" stroke-linejoin="round" stroke-miterlimit="10" fill="none" fill-rule="evenodd"/><path d="M2898.61 1433.29 3809.55 1433.29" stroke="#000000" stroke-width="4.58333" stroke-linejoin="round" stroke-miterlimit="10" fill="none" fill-rule="evenodd"/><path d="M2900.91 711.232 2900.91 1103.29" stroke="#000000" stroke-width="4.58333" stroke-linejoin="round" stroke-miterlimit="10" fill="none" fill-rule="evenodd"/><path d="M2900.91 1103.29 2900.91 1323.29" stroke="#D74514" stroke-width="4.58333" stroke-linejoin="round" stroke-miterlimit="10" fill="none" fill-rule="evenodd"/><path d="M2900.91 1323.29 2900.91 1825.34" stroke="#000000" stroke-width="4.58333" stroke-linejoin="round" stroke-miterlimit="10" fill="none" fill-rule="evenodd"/><path d="M3807.26 711.232 3807.26 1103.29" stroke="#000000" stroke-width="4.58333" stroke-linejoin="round" stroke-miterlimit="10" fill="none" fill-rule="evenodd"/><path d="M3807.26 1103.29 3807.26 1323.29" stroke="#D74514" stroke-width="4.58333" stroke-linejoin="round" stroke-miterlimit="10" fill="none" fill-rule="evenodd"/><path d="M3807.26 1323.29 3807.26 1825.34" stroke="#000000" stroke-width="4.58333" stroke-linejoin="round" stroke-miterlimit="10" fill="none" fill-rule="evenodd"/><path d="M2898.61 713.524 3809.55 713.524" stroke="#000000" stroke-width="4.58333" stroke-linejoin="round" stroke-miterlimit="10" fill="none" fill-rule="evenodd"/><path d="M2898.61 1823.05 3809.55 1823.05" stroke="#000000" stroke-width="4.58333" stroke-linejoin="round" stroke-miterlimit="10" fill="none" fill-rule="evenodd"/><text font-family="Microsoft YaHei,Microsoft YaHei_MSFontService,sans-serif" font-weight="400" font-size="64" transform="matrix(1 0 0 1 3328.02 932)">…<tspan fill="#D74514" font-family="Courier New,Courier New_MSFontService,sans-serif" font-weight="700" font-size="64" x="-191.641" y="246">/bin/</tspan><tspan fill="#D74514" font-family="Courier New,Courier New_MSFontService,sans-serif" font-weight="700" font-size="64" x="0.286377" y="246">sh</tspan><tspan fill="#D74514" font-weight="700" font-size="64" x="115.443" y="246">地址</tspan><tspan fill="#D74514" font-size="64" x="-121" y="360">padding2</tspan><tspan fill="#D74514" font-family="Courier New,Courier New_MSFontService,sans-serif" font-weight="700" font-size="64" x="-210.833" y="466">system() </tspan><tspan fill="#D74514" font-weight="700" font-size="64" x="134.636" y="466">地址</tspan><tspan fill="#D74514" font-size="64" x="-121" y="720">padding1</tspan></text><path d="M3230 1925 3292 1925 3292 1823 3416 1823 3416 1925 3478 1925 3354 2027Z" fill="#D74514" fill-rule="evenodd"/><text fill="#5D1709" font-family="Microsoft YaHei,Microsoft YaHei_MSFontService,sans-serif" font-weight="700" font-size="55" transform="matrix(1 0 0 1 3271.58 2097)">低地址<tspan font-size="55" x="0" y="-1406">高地址</tspan><tspan font-weight="400" font-size="55" x="-733.791" y="-1162">调用函数状态</tspan><tspan font-weight="400" font-size="55" x="-733.791" y="-448">被调函数状态</tspan><tspan font-weight="400" font-size="55" x="-844.135" y="-702">被调函数返回地址</tspan><tspan font-weight="400" font-size="55" x="536.832" y="-641">←</tspan><tspan font-weight="400" font-size="55" x="591.832" y="-641">ebp</tspan><tspan font-weight="400" font-size="55" x="540.777" y="-252">←</tspan><tspan font-weight="400" font-size="55" x="595.777" y="-252">esp</tspan><tspan font-weight="400" font-size="55" x="568.678" y="-893">栈</tspan><tspan font-weight="400" font-size="55" x="623.678" y="-893">溢出</tspan><tspan font-weight="400" font-size="55" x="568.678" y="-827">payload</tspan></text></g></svg>
